X:561
T:Nun hai carretera ensin barru (CT 123)
R:Xiraldilla
C:Tradicional
S:Msica Tradicional Asturiana, (C) Tello & Tito. Asturies, 2001.
S:http://pagina.de/MusTradAst <telloytito@asturies.org>
N:Xiraldilla, transcrita en Uviu.
A:Asturies
O:Uviu
Z:Cancioneru de Torner 123
M:3/8
L:1/8
Q:3/8=80
K:C
d|d2B|GBd|(d2- d/2_e/4d/4|c2)d|_e2e|ggg|(d2B)|G2d|
  d2B|GBd|(d2- d/2_e/4d/4|c2)d|_e2e|ggg|(d2B)|GBd|
d2B|GBd|d2B|GBd|d2B|GBd|(d2- d/2_e/4d/4)|c2d|_e2e|ggg|
d3/2c/2B|ddd|c3/2B/2A|ccc|(B2 A/2B/4A/4)|G3-|G2z||
W:Nun hai carretera ensin barru,
W:nin parau que nun tenga herba,
W:nin mociquina d'a quince
W:que nun sea guapa o fea.
W:
W:Adios Rosina, y adios clavel,
W:que te vengo a ver
W:de maana y tarde;
W:de nueche nun puede ser,
W:que me cueye la ronda,
W:me prende l'alcalde.
W:
